lib/brands/icons/medium.svg

<svg xmlns="http://www.w3.org/2000/svg" fill="none" aria-hidden="true" viewBox="0 0 48 48"><g id="medium-Icon"><path id="Vector" fill="black" d="M26.5624 24.0002C26.5624 30.2733 21.5116 35.3586 15.2814 35.3586C9.05122 35.3586 4 30.2722 4 24.0002C4 17.7282 9.05083 12.6414 15.2814 12.6414C21.512 12.6414 26.5624 17.7271 26.5624 24.0002ZM38.9381 24.0002C38.9381 29.905 36.4126 34.6936 33.2974 34.6936C30.1821 34.6936 27.6567 29.905 27.6567 24.0002C27.6567 18.0954 30.1817 13.3068 33.297 13.3068C36.4123 13.3068 38.9377 18.0939 38.9377 24.0002H38.9381ZM44 24.0002C44 29.2894 43.1119 33.5798 42.0162 33.5798C40.9204 33.5798 40.0327 29.2906 40.0327 24.0002C40.0327 18.7098 40.9207 14.4206 42.0162 14.4206C43.1116 14.4206 44 18.7094 44 24.0002"/></g></svg>

<svg xmlns="http://www.w3.org/2000/svg" fill="none" aria-hidden="true" viewBox="0 0 48 48"><path fill="#000" d="M26.562 24c0 6.273-5.05 11.359-11.28 11.359C9.051 35.359 4 30.272 4 24s5.05-11.359 11.281-11.359c6.231 0 11.281 5.086 11.281 11.36Zm12.376 0c0 5.905-2.525 10.694-5.64 10.694-3.116 0-5.641-4.789-5.641-10.694 0-5.905 2.525-10.693 5.64-10.693 3.115 0 5.64 4.787 5.64 10.693h.001ZM44 24c0 5.29-.888 9.58-1.984 9.58s-1.983-4.29-1.983-9.58.888-9.58 1.983-9.58C43.112 14.42 44 18.71 44 24"/></svg>
